X: 49
T: Molly St George
T: Molly Saint George
%R: waltz, air
B: "The Hibernian Muse" p.30 #1
F: http://imslp.org/wiki/The_Hibernian_Muse_%28Various%29
Z: 2015 John Chambers <jc:trillian.mit.edu>
P: No. XLIX.
M: 6/8
L: 1/8
K: G
% - - - - - - - - - - - - - - - - - - - - - - - - - - - - -
V: 1
de/f/ |\
g2 Tf2 e2 | d2 (ed)(cB) | c2 B2 A>G | E4 Bd |\
e2 (ge)(dB) | A2 (B/c/d) D2 | E2 (G/A/B) TA>G | G4 :|\
|: D>E |\
(GA) B2 (A/B/c) | B2 (cB)(AG) | (cBcdef) | g4 ea |
a2 (ba)(ge) | d2 (ed)(cB) | c2 (dc)(Bc) | A4 (BA/B/) |\
(cB)(cdef) | Hg4 fe | (dg)(dB)(AG) | E4 Bd |\
e2 (ge)(dB) | A2 (B/c/d) D2 | E2 (G/A/B) TAG | G4 :|
% - - - - - - - - - - - - - - - - - - - - - - - - - - - - -
V: 2 clef=bass middle=d
z2 |\
g4 c2 | G6 | c4 d2 | e2 E2 z2 |\
c2 c2 G2 | d4 B2 | c2 d4 | g2 G2 :|
|: z2 |\
g4 f2 | g4 e2 | c4 A2 | B4 c2 |\
d2 D2 c2 | B2 G2 g2 | a2 f2 g2 | f2 d2 g2 |
a6 | Hg4 z2 | g2 G2 d2 | e2 E2 z2 |\
g2 c'2 g2 | f2 d2 B2 | c2 d2 D2 | G4 :|

%%sep 2 1 500
%%sep 1 1 500

